X: 23
T: Niski'gwun's dream song
N: Derived from ojibwa23.krn
C: Chippewa Songs ~ 1910
O: Red Wing, Minnesota, U.S.A
N: Chippewa Music by Frances Densmore, 1910
Z: transcribed to **kern format by Paul von Hippel and Daniel T. Shanahan
L: 1/8
M: 3/4
Q: 1/4=108
K: G clef=bass
%%linebreak <none>
D3/ D/ [I:setbarnb 1]| 
_E6 | 
[M:2/4]D4 | 
[M:3/4]D2B,2D3/ D/ | 
D4-D/> E/ D | 
[M:2/4]B,> C B, A, | 
[M:3/4]G,2G,3G, | 
[M:2/4]G,4- | 
G,2D2 | 
B,2-B,/> C/ B,/ A,/ | 
G,< G, G, G, | 
E,2G,3/ G,/ | 
[M:3/4]G,4-G,/> A,/ G, | 
E,2E,2E, E, | 
[M:2/4]D,4 | 
[M:3/4]D,2B,,2D,3/ D,/ | 
[M:2/4]D,4 | 
D, D,B,,2 | 
G,,4 |]  



